X: 2
T: The Queen Of The Rushes
R: jig
M: 6/8
L: 1/8
K: Dmix
AG|:F2D DEF|G2 E !roll!E3|F2 D !roll!D3|GED !roll!D3|
F2 D !roll!D3|!roll!E3 EFG|AGA GEA|DED D3 :|]
B|c2A Bcd|ecA AGE|d2e fed|ecA AGE|
c2A Bcd|ecA AGE|!roll!F3 GEA|DED D2:|]
FG|!roll!A3 dAF|!roll!A3 dAF|!roll!G3 EGE|cBc EFG|
!roll!A3 dAF|!roll!A3 dAG|FEF GEA|DED D2:|]


